X:1
T:Jupiter
T:Jupiter
T:From The Planets Gustav Holst
C:Gustav Holst
%%score { 1 | 2 }
L:1/8
Q:1/4=100
M:3/4
K:G
V:1 treble nm="Piano" snm="Pno."
V:2 bass 
V:1
 B,D | E2- EG FD | [DG]A G2 [DF]2 | EF E2 D2 | B,4 B,D | E2- EG FD | [DG]A B2 [DB]2 | %7
w: I _|vow _ to thee my|coun- * try all|earth- ly things a-|bove En- *|tire _ and whole and|per- * fect, the|
 [EB]A G2 [EA]2 | G4 [Gd]B | [FA]2 A2 GB | A2 D2 [Gd]B | [FA]2 A2 Bd | [ce]4 [ce]f | %13
w: ser- vice of my|love The _|love that asks no|ques- tion, the _|love that stands the|test, th- at|
 [Bg]2 [Bf]2 [Ge]2 | [Gd]2 [Gg]2 [GB]2 | [EA]G A2 B2 | [Ad-]2 [Gd]2 [FB]d | [ce-]2 eg [Af]d | %18
w: lays upon the|al- tar the|dear- est and the|best . The _|love _ that nev- er|
 ga g2 f2 | ef e2 d2 | [GB]4 [FB]d | [ce-]2 eg [df]d | [dg][da] b2 !>!b2 | %23
w: fal- * ters the|love that pays the|price. The _|love _ that makes un-|daunt- * ed the|
 !>![eb]!>![ea] !>![eg]2 !>![ea]2 | !>!!fermata![Bdg]6 |] %25
w: fi- nal sa- cri-|fice|
V:2
 z2 | C,2 z2 D,2 | B,,2 z2 B,,2 | C,2 z2 [D,F,]2 | [E,G,]4 [D,F,]2 | C,2 z2 D,2 | B,,2 z2 G,,B,, | %7
 C,2 z2 E,2 | z2 [G,B,]2 B,,2 | D,2 z2 E,2 | F,2 z2 B,,2 | D,2 z2 G,2 | C2 B,2 A,2 | E,2 D,2 C,2 | %14
 B,,2 A,,2 G,,2 | C,2 A,2 G,2 | F,2 E,2 D,2 | [C,G,]2 E,G, [D,A,]2 | [B,,G,]2 z2 [B,,G,]2 | %19
 [C,G,]2 z2 [D,A,]2 | E,4 D,2 | [C,G,]2 z2 [D,A,]2 | [B,,G,]3 z !>!G,,!>!B,, | %23
 !>!C,2 !>!E,2 !>!C,2 | !>!!fermata![G,,D,]6 |] %25

